X:1
T:Little Musgrave and Lady Barnard
B:Ballad Literature and Popular Music of the Olden Time, William Chappell, 1859. vol. I, p.170.
S:"Traditional".
L:1/8
Q:1/4=120
M:4/4
K:G
D2|G2 (G3/F/) E2 c3/B/|(A3/G/) F3/A/ D2 D2|G2 G3/F/ E2 c3/B/|A6 D2|
w:As it fell_ out on a high_ hol-i-day, As man-y there be in the year, When
(G3/A/) B3/c/ d2 (cB)|c2 BA B2 GA|B2 G3/G/ DD F2|G6|]
w:young_ man and maids to_ge-ther do go, Their_ mas-ses and mat-ins to hear.